X: 3976
T: Blacksmith's, The
R: reel
M: 4/4
K: Gmajor
G2 GG DGBG|G2 Bd cAFA|G2 GG DGBG|AFDF ABcA|
Gz G2 DGBG|G2 Bd cAFA|d2 cA BGAF|DEED Acdc:|
d2 B2 dBGB|dB B2 deed|dB B2 dBGB|AFDF ABcA|
d2 B2 dBGB|dB B2 deed|d2 cA BGAF|DEED ABcA:|

